src/img/networks/facebook.svg

<svg width="35" height="35" viewBox="0 0 35 35" fill="none" xmlns="http://www.w3.org/2000/svg">
<circle cx="17.5" cy="17.5" r="17" fill="white" stroke="#44220F"/>
<g clip-path="url(#clip0)">
<path d="M18.979 15.5576C18.9834 15.5752 18.9916 15.5889 19.0006 15.5984C19.0134 15.6119 19.0229 15.613 19.0272 15.613H21.2481H21.5907C21.5832 15.6076 21.5755 15.6026 21.5677 15.598L18.979 15.5576ZM18.979 15.5576H19.4744H21.4129C21.4723 15.5576 21.5254 15.5731 21.5675 15.5979L18.979 15.5576ZM15.5677 19.0492C15.5766 19.0586 15.5849 19.0724 15.5893 19.09H15.094H13.5026C13.4458 19.09 13.3864 19.0707 13.3341 19.0346H13.6749H15.5411C15.5454 19.0346 15.5549 19.0357 15.5677 19.0492ZM13.6749 15.613H13.3343C13.3865 15.577 13.4458 15.5577 13.5026 15.5577H15.094H15.5892C15.5848 15.5752 15.5766 15.5889 15.5676 15.5984C15.5548 15.6119 15.5453 15.613 15.5411 15.613H13.6749ZM16.6234 10.6606C16.1221 11.2064 15.8012 11.9133 15.6661 12.7321C15.8061 11.8668 16.146 11.145 16.6501 10.5983L16.6501 10.5983C17.325 9.86646 18.2767 9.46494 19.4386 9.46484C19.4387 9.46484 19.4389 9.46484 19.439 9.46484L21.5184 9.46841C21.5184 9.46841 21.5184 9.46841 21.5185 9.46841C21.5751 9.46853 21.6343 9.48792 21.6865 9.52397L21.5175 9.52367V9.52365H21.5174V9.52367L21.3464 9.52338L19.4391 9.52008H19.4382C18.2888 9.52008 17.3107 9.91237 16.6234 10.6606ZM21.518 12.8014L20.1175 12.802C20.1174 12.802 20.1174 12.802 20.1173 12.802C19.6545 12.802 19.3474 12.8936 19.1752 13.0989L19.1742 13.1001C19.0763 13.2176 19.0339 13.3581 19.0112 13.4748C19.0068 13.4972 19.0029 13.5205 18.9993 13.5449C19.028 13.3378 19.0865 13.1705 19.1935 13.0425L19.1935 13.0424C19.3909 12.8061 19.7334 12.7467 20.1172 12.7467H20.1175L21.3458 12.7462L21.6866 12.746C21.6343 12.7821 21.5749 12.8014 21.5181 12.8014H21.518ZM21.2472 19.0346H21.5879C21.5356 19.0706 21.4763 19.0899 21.4195 19.0899H19.4744H18.979C18.9834 19.0724 18.9917 19.0587 19.0006 19.0492C19.0134 19.0357 19.023 19.0346 19.0273 19.0346H21.2472ZM18.4757 26.4096H18.8164C18.7641 26.4456 18.7048 26.4648 18.648 26.4648H15.9203C15.8635 26.4648 15.8042 26.4456 15.7519 26.4096H16.0926H18.4757Z" fill="#828282" stroke="#44220F"/>
</g>
<defs>
<clipPath id="clip0">
<rect width="17" height="18" transform="translate(9 9)"/>
</clipPath>
</defs>
</svg>

<svg width="35" height="35" fill="none" xmlns="http://www.w3.org/2000/svg"><circle cx="17.5" cy="17.5" r="17" fill="#fff" stroke="#44220F"/><g clip-path="url(#clip0)"><path d="M18.979 15.558a.091.091 0 0 0 .022.04c.012.014.022.015.026.015h2.564a.302.302 0 0 0-.023-.015l-2.589-.04zm0 0h2.434c.06 0 .112.015.154.04l-2.588-.04zm-3.411 3.491c.009.01.017.023.021.041h-2.086a.3.3 0 0 1-.169-.055h2.207c.004 0 .014 0 .027.014zm-1.893-3.436h-.34a.3.3 0 0 1 .168-.055h2.086a.091.091 0 0 1-.021.04c-.013.014-.023.015-.027.015h-1.866zm2.948-4.952c-.5.545-.822 1.252-.957 2.071.14-.865.48-1.587.984-2.134h0c.675-.732 1.627-1.133 2.789-1.133 0 0 0 0 0 0l2.08.003s0 0 0 0a.3.3 0 0 1 .168.056h-.17v0h0v0h-.17l-1.908-.004h0c-1.15 0-2.128.392-2.816 1.14zm4.895 2.14l-1.4.001s0 0 0 0c-.463 0-.77.092-.943.297v.001a.821.821 0 0 0-.164.375 1.5 1.5 0 0 0-.012.07c.029-.207.088-.374.195-.502h0c.197-.237.54-.296.923-.296h1.229l.34-.001a.3.3 0 0 1-.168.055h0zm-.27 6.234h.34a.3.3 0 0 1-.169.055h-2.44a.092.092 0 0 1 .022-.04c.012-.014.022-.015.026-.015h2.22zm-2.772 7.375h.34a.3.3 0 0 1-.168.055H15.92a.3.3 0 0 1-.168-.055H18.476z" fill="#828282" stroke="#44220F"/></g><defs><clipPath id="clip0"><path transform="translate(9 9)" d="M0 0h17v18H0z"/></clipPath></defs></svg>
